src/topics/icons/redsmin.svg

<?xml version="1.0" encoding="UTF-8" standalone="no"?>
<svg width="256px" height="344px" viewBox="0 0 256 344" version="1.1" xmlns="http://www.w3.org/2000/svg" xmlns:xlink="http://www.w3.org/1999/xlink" preserveAspectRatio="xMidYMid">
	<g>
		<path d="M0,324.4331 C0,335.2411 8.761,344.0001 19.567,344.0001 C30.373,344.0001 39.134,335.2411 39.134,324.4331 L39.134,196.6911 L38.229,196.3621 L0.327,218.7441 L0,219.8011 L0,324.4331 Z" fill="#EE3A43"></path>
		<path d="M0,83.7621 L0,219.8011 L39.134,196.6911 L39.134,94.9611 L39.148,94.5511 L3.168,73.7361 L2.7,73.8691 C0.967,76.8221 0,80.2211 0,83.7621" fill="#CF3239"></path>
		<path d="M117.9269,3.297 L9.6569,66.889 C6.7279,68.61 4.3619,71.035 2.6999,73.869 L39.1339,94.961 L127.9489,42.796 L128.6979,41.581 L128.6979,1.439 L127.9489,0.619 C124.4769,0.595 121.0239,1.479 117.9269,3.297" fill="#AF272B"></path>
		<path d="M245.5227,65.1601 L137.5777,3.1991 C134.6017,1.4921 131.2647,0.6421 127.9497,0.6191 L127.9497,42.7961 L216.2737,93.4941 L216.8447,93.6461 L253.7567,75.2891 L253.9217,74.8431 C252.3077,70.8271 249.3967,67.3841 245.5227,65.1601" fill="#7A1313"></path>
		<path d="M255.9997,204.6469 L255.3477,82.0269 C255.3347,79.5219 254.8257,77.0949 253.9207,74.8429 L216.2737,93.4939 L216.2827,193.6439 L216.4267,194.3779 L250.6937,217.2129 L251.5367,217.1339 C254.3827,213.6609 256.0237,209.2759 255.9997,204.6469" fill="#AF272B"></path>
		<path d="M251.5365,217.1335 L216.2825,193.6445 L118.7435,250.8035 C118.6705,250.8465 167.3665,268.4515 167.3665,268.4515 L246.2515,221.6405 C248.2425,220.4595 250.1125,218.8705 251.5365,217.1335" fill="#CF3239"></path>
		<path d="M228.8354,343.8739 C225.6384,343.8739 222.3974,343.0909 219.4014,341.4359 L117.9614,285.4789 C108.4994,280.2589 105.0594,268.3579 110.2794,258.8959 C115.4964,249.4329 127.4044,245.9859 136.8634,251.2139 L238.3034,307.1709 C247.7664,312.3909 251.2054,324.2919 245.9854,333.7539 C242.4194,340.2199 235.7314,343.8739 228.8354,343.8739" fill="#EE3A43"></path>
		<g transform="translate(82.000000, 96.000000)">
			<path d="M45.4768,48.6336 L86.4008,24.5136 L86.6428,23.7946 C84.6508,20.8226 82.0238,18.2626 78.8198,16.4126 L57.4228,4.0596 C50.0608,-0.1914 40.9908,-0.1914 33.6298,4.0596 L12.2318,16.4126 C9.0668,18.2406 6.4658,20.7606 4.4818,23.6856 L4.6618,24.5136 L45.4768,48.6336 Z" fill="#CF3239"></path>
			<path d="M78.8198,82.3314 C82.9528,79.9454 86.1498,76.4004 88.1988,72.2654 L87.9578,71.5224 L46.3148,47.7034 L45.4398,47.8094 L44.2278,47.8784 L3.0488,72.1424 L3.0968,72.7594 C5.1548,76.6814 8.2638,80.0404 12.2318,82.3314 L33.6298,94.6854 C40.9908,98.9354 50.0608,98.9354 57.4228,94.6854 L78.8198,82.3314 Z" fill="#7A1313"></path>
			<path d="M4.4787,23.6896 C1.8497,27.5666 0.3357,32.1746 0.3357,37.0186 L0.3357,61.7256 C0.3357,65.6526 1.3407,69.4226 3.1077,72.7816 L45.4407,47.8086 L4.4787,23.6896 Z" fill="#AF272B"></path>
			<path d="M88.201,72.2615 C89.8,69.0325 90.716,65.4525 90.716,61.7255 L90.716,37.0185 C90.716,32.2195 89.229,27.6535 86.646,23.7985 L45.44,47.8095 L88.201,72.2615 Z" fill="#EE3A43"></path>
		</g>
	</g>
</svg>

<svg height="344" preserveAspectRatio="xMidYMid" viewBox="0 0 256 344" width="256" xmlns="http://www.w3.org/2000/svg"><path d="m0 324.4331c0 10.808 8.761 19.567 19.567 19.567s19.567-8.759 19.567-19.567v-127.742l-.905-.329-37.902 22.382-.327 1.057z" fill="#ee3a43"/><path d="m0 83.7621v136.039l39.134-23.11v-101.73l.014-.41-35.98-20.815-.468.133c-1.733 2.953-2.7 6.352-2.7 9.893" fill="#cf3239"/><path d="m117.9269 3.297-108.27 63.592c-2.929 1.721-5.295 4.146-6.957 6.98l36.434 21.092 88.815-52.165.749-1.215v-40.142l-.749-.82c-3.472-.024-6.925.86-10.022 2.678" fill="#af272b"/><path d="m245.5227 65.1601-107.945-61.961c-2.976-1.707-6.313-2.557-9.628-2.58v42.177l88.324 50.698.571.152 36.912-18.357.165-.446c-1.614-4.016-4.525-7.459-8.399-9.683" fill="#7a1313"/><path d="m255.9997 204.6469-.652-122.62c-.013-2.505-.522-4.932-1.427-7.184l-37.647 18.651.009 100.15.144.734 34.267 22.835.843-.079c2.846-3.473 4.487-7.858 4.463-12.487" fill="#af272b"/><path d="m251.5365 217.1335-35.254-23.489-97.539 57.159c-.073.043 48.623 17.648 48.623 17.648l78.885-46.811c1.991-1.181 3.861-2.77 5.285-4.507" fill="#cf3239"/><path d="m228.8354 343.8739c-3.197 0-6.438-.783-9.434-2.438l-101.44-55.957c-9.462-5.22-12.902-17.121-7.682-26.583 5.217-9.463 17.125-12.91 26.584-7.682l101.44 55.957c9.463 5.22 12.902 17.121 7.682 26.583-3.566 6.466-10.254 10.12-17.15 10.12" fill="#ee3a43"/><g transform="translate(82 96)"><path d="m45.4768 48.6336 40.924-24.12.242-.719c-1.992-2.972-4.619-5.532-7.823-7.382l-21.397-12.353c-7.362-4.251-16.432-4.251-23.793 0l-21.398 12.353c-3.165 1.828-5.766 4.348-7.75 7.273l.18.828z" fill="#cf3239"/><path d="m78.8198 82.3314c4.133-2.386 7.33-5.931 9.379-10.066l-.241-.743-41.643-23.819-.875.106-1.212.069-41.179 24.264.048.617c2.058 3.922 5.167 7.281 9.135 9.572l21.398 12.354c7.361 4.25 16.431 4.25 23.793 0z" fill="#7a1313"/><path d="m4.4787 23.6896c-2.629 3.877-4.143 8.485-4.143 13.329v24.707c0 3.927 1.005 7.697 2.772 11.056l42.333-24.973z" fill="#af272b"/><path d="m88.201 72.2615c1.599-3.229 2.515-6.809 2.515-10.536v-24.707c0-4.799-1.487-9.365-4.07-13.22l-41.206 24.011z" fill="#ee3a43"/></g></svg>
